X:1
T:Let the Joy Overflow
T:Let the Joy Overflow
T:Charles Hutchinson Garbriel
T:Eliza Edmunds Hewitt, 1917
T:Public Domain Courtesy of the Cyber Hymnal™
T:Public Domain Courtesy of the Cyber Hymnal™
C:Charles Hutchinson Garbriel
Z:Public Domain
Z:Courtesy of the Cyber Hymnal™
%%score ( 1 2 ) ( 3 4 )
L:1/8
M:6/4
K:Eb
V:1 treble 
V:2 treble 
V:3 bass 
V:4 bass 
V:1
 [EG][FA] | [GB]2 [Ge]2 [Ac]2 [GB]2 [EG]2 E[DF] | [EG]2 [EG]2 [EG]2 [EG]4 [EG][FA] | %3
w: 1.~There’s a|clear fount- ain flow- ing From the|bright throne a- bove, And its|
w: 2.~Ma- ny|hearts need the sto- ry— Are a-|thirst for His grace; Go to|
w: 3.~Be our|lives free- ly yield- ed to the|Sav- ior’s com- mand; By His|
 [GB]2 [Ge]2 [Ac]2 [GB]2 [EG]2 [DF][EG] | [DA]2 [FA]2 [EA]2 [DA]4 [DF][EG] | %5
w: wa- ters are glow- ing With the|sun- shine of love; Take the|
w: them with His glo- ry Shin- ing|out from your face; Tell of|
w: care ev- er shield- ed And up-|held by His hand; In the|
 [FA]2 [=EG]2 [FA]2 [Ad]2 [Ac]2 [FA][DF] | [EG]2 [DA]2 [E=A]2 [EB]4 [EB][Ec] | %7
w: blest con- so- la- tion, Which the|Lord will be- stow, Take the|
w: Je- sus your Sav- ior! If His|mer- cies you know, Show the|
w: path- ways of sad- ness, Sweet- est|lil- ies may grow; Let us|
 [Fd]2 [DF]2 [Fd]2 [Ge]2 [Gd]2 [Gc][Gc] | x12 | [FB]2 [FB]2 [E=A]2 [DB]4 || %10
w: cup of sal- va- tion— Let the||joy o- ver- flow.|
w: light of His fa- vor— Let the||joy o- ver- flow.|
w: sow seeds of glad- ness— Let the||joy o- ver- flow.|
"^Refrain" [Ac][Ad] x10 | e6- [Ge]4 [GB][GB] | [Ac]2 [Ae]2 [Ac]2 [GB]2 [EG]2 [EB][EB] | %13
w: |||
w: O the|joy! With this wond-|* rous sal- va- tion Be our|
w: |||
 [Ec]6 [EB]4 [EG]2 | [DF]6- [DF]4 [AB][AB] | e6- [Ge]4 [Ge][Ge] | %16
w: |||
w: hearts all a-|glow; * O the|joy! Let the bless-|
w: |||
 [Af]2 [Ae]2 [Ac]2 [GB]2 [EG]2 [GB]2 | [Ac]6 [Ad]4 [AB]2 | [Ge]6- [Ge]4 |] %19
w: |||
w: * ing run o- ver, And|joy o- ver-|flow. *|
w: |||
V:2
 x2 | x10 E x | x12 | x12 | x12 | x12 | x12 | x12 | x12 | x10 || x12 | G2 E2 E2 x6 | x12 | x12 | %14
 x12 | G2 E2 E2 x6 | x12 | x12 | x10 |] %19
V:3
 [E,B,][E,B,] | [E,E]2 [E,B,]2 [E,E]2 [E,E]2 [E,B,]2 [G,B,]B, | %2
w: ~ ~|~ ~ ~ ~ ~ ~ ~|
 [E,B,]2 [E,E]2 [E,C]2 [E,B,]4 [E,B,][E,B,] | [E,E]2 [E,B,]2 [E,E]2 [E,E]2 [E,B,]2 [A,B,][G,B,] | %4
w: ~ ~ ~ ~ ~ ~|~ ~ ~ ~ ~ ~ ~|
 [F,B,]2 [D,B,]2 [C,B,]2 [B,,B,]4 [B,,B,][B,,B,] | %5
w: ~ ~ ~ ~ ~ ~|
 [B,,B,]2 [B,,B,]2 [B,,B,]2 [B,,B,]2 [B,,B,]2 [B,,B,][B,,B,] | %6
w: ~ ~ ~ ~ ~ ~ ~|
 [E,B,]2 [F,B,]2 [^F,C]2 [G,B,]4 [G,B,][F,B,] | %7
w: ~ ~ ~ ~ ~ ~|
 [F,B,]2 [F,B,]2 [G,=B,]2 [C,C]2 [D,B,]2 [E,C][E,C] | [F,D]2 [F,D]2 [F,C]2 [B,,B,]4 x2 | %9
w: ~ ~ ~ ~ ~ ~ ~|~ ~ ~ ~|
 [B,D]B, x8 || [E,B,]2 [G,B,]2 [A,C]2 [E,B,]4 [E,E][E,E] | %11
w: ~ ~|~ O the joy! ~ ~|
 [A,E]2 [A,C]2 [A,E]2 [E,E]2 [E,B,]2 [G,B,][G,B,] | A,6 [G,B,]4 [E,B,]2 | %13
w: ~ ~ ~ ~ ~ ~ ~|~ ~ ~|
 [B,,B,]6- [B,,B,]4 [B,D]B, | [E,B,]2 [G,B,]2 [A,C]2 [E,B,]4 [E,B,][E,B,] | %15
w: ~ * ~ ~|~ O the joy! * *|
 [A,C]2 [A,C]2 [A,E]2 [E,E]2 [E,B,]2 [G,E]2 | [A,E]6 [F,B,]4 B,2 | [E,B,]6- [E,B,]4 x2 | x10 |] %19
w: ||||
V:4
 x2 | x11 B, | x12 | x12 | x12 | x12 | x12 | x12 | x12 | x B, x8 || x12 | x12 | A,6 x6 | x11 B, | %14
 x12 | x12 | x10 B,2 | x12 | x10 |] %19

